X:1
T:Io dunq'ingrato
T:Io dunq'ingrato
T:Giovanni Ghizzolo
C:Giovanni Ghizzolo
%%score [ 1 ( 2 3 ) 4 ]
L:1/8
Q:1/4=120
M:4/4
K:C
V:1 treble nm="Soprano" snm="S"
V:2 treble nm="MusicXML Part"
V:3 treble 
V:4 bass nm="BC" snm="BC"
V:1
"^Editor: André Vierendeels (04/10/08)\nContinuo: André Vierendeels""^Source: Madrigali et Arie---Libro secondo---Venetia---A.Raverij.1609." z GBc d3 G | %1
w: Io- dunq' in- gra- to|
 A4"^MADRIGALE" A4 | z Acd e3 A | B4 B4 | ^G2 GA B4- | B2 G2 ^G4 | A4 z2 B2 | d3 G A3 G | %8
w: fil- li,-|Io dunq' in- gra- to|fil- li,|s'al- tra per me|_ lan- gui-|do? In-|gra- ta ben fer-|
 G4 z2 c2 | e3 A B3 A | A4 z GGA | BB d4 cB | cd e2 f2 ed | d4 c4 | z2 c2 d/c/d/B/ c/B/c/d/ | %15
w: ru, in-|gra- ta ben fer-|ru, se dal mio|co- re vol- gi ri-|tro- soa- man- te il de-|si- o|Per ch'al- * * * * * * *|
 e6 G2 | G2 G2 A4 | G8 |: z2 GG G2 GF | A2 A2 z AAB | cEEF G4- | G2 E2 E4 | D8 | z2 D2 D3 C | %24
w: * tri|mi die'l co-|re|Co- mee pri- vo di|fe- de se te- co'in-|gra- tai gra- toal- cun|_ mi cre-|de|ch'a- mai se|
 E4 E4 | z GGG G3 F | A4 A4 | z2 A2 A3 G | B4 B4 | z ddd d3 c | e4 e4 | z GGG G4- | G2 _B2 A4 | %33
w: strus- si|e tu non a- mi'e|strug- gi|se- gui se-|gui- to|e tu se- gui- ta|fug- gi|e tu seg- gui-||
 G8 :| %34
w: |
V:2
 [DGB]8 | [D^FA]8 | [D^FA]4 [EA]4 | [E^GB]8 | [E^GB]8 | [DG]4 [EB]4 | [D^FA]4 [D-GB-]4 | %7
 [DGB]4 [D^FA]4 | [DGB]4 [EAc]4 | [EGc]4 [E^GB]4 | [EAc]4 [EGc]4 | [DGB]4 [DFA]4 | [EAc]4 [FAc]4 | %13
 [DG]4 [EGc]4 | G2 [Ec]2 [DB]2 [CA]2 | [Gc]8 | [EGc]4 G2 ^F2 | [DGB]8 |: [EGc]8 | [FAc]8 | [EGc]8 | %21
 [EAc]8 | [^FA]8 | [DGB]8 | [E-Gc-]8 | [EGc]8 | [FAc]8 | [D^FA]8 | [D-GB-]8 | [DGB]8 | [E-Gc-]8 | %31
 [EGc]8 | [DGB]4 G2 ^F2 | [DGB]8 :| %34
V:3
 x8 | x8 | x8 | x8 | x8 | x8 | c4 z4 | x8 | x8 | x8 | x8 | x8 | x8 | c2 B2 x4 | x8 | x8 | x8 | %17
 x8 |: x8 | x8 | x8 | x8 | x8 | x8 | x8 | x8 | x8 | x8 | x8 | x8 | x8 | x8 | x8 | x8 :| %34
V:4
 G,4 B,,4 | D,4 D,,4 | A,4 ^C,4 | E,4 E,,4 | E,8 | B,,4"^#" E,4 | D,4 G,,4 | B,,4 D,4 | G,,4 A,,4 | %9
 C,4 E,4 | A,,4 C,4 | G,4 F,E,F,G, | A,4 F,2 E,2 | G,4 C,2 C2 | B,2 A,2 G,2 F,2 | %15
 E,2 D,2 C,2 B,,2 | C,2 E,2 D,4 | G,,8 |: C,8 | F,,8 | C,8 | A,,8 | D,4 D,,4 | G,,8 | C,4 C,,4 | %25
 C,8 | F,4 F,,4 | D,8 |"^note: original keys: Ut 1st, F 4rth" G,4 G,,4 | G,8 | C4 C,4 | %31
 C,6 B,,A,, | G,,4 [D,A,]4 | G,,8 :| %34

